symbols/web/report_off/materialsymbolsrounded/report_off_wght700fill1_20px.svg

<svg xmlns="http://www.w3.org/2000/svg" height="20" width="20"><path d="M7.708 18.208q-.541 0-1.052-.208-.51-.208-.885-.583L2.604 14.25q-.375-.375-.594-.885-.218-.511-.218-1.053V7.688q0-.542.218-1.042.219-.5.573-.854l.188-.209L.854 3.688q-.312-.313-.302-.719.01-.407.323-.719t.719-.312q.406 0 .739.312L17.75 17.688q.312.312.302.729-.01.416-.302.708-.333.333-.729.333-.396 0-.709-.333l-1.916-1.896-.188.188q-.375.375-.875.583-.5.208-1.041.208ZM9.5 12.375h.083q-.333.125-.552.437-.219.313-.219.667 0 .479.355.833.354.355.833.355.354 0 .667-.219.312-.219.437-.552v.042Zm7.792 1.958.083-.083q.375-.375.604-.885.229-.511.229-1.073V7.708q0-.541-.218-1.052-.219-.51-.594-.885l-3.167-3.167q-.375-.375-.885-.594-.511-.218-1.052-.218H7.708q-.541 0-1.052.218-.51.219-.885.594l-.104.104 3.354 3.313v.146q.125-.355.406-.521.281-.167.573-.167.417 0 .729.302.313.302.313.719v1.542Z"/></svg>

<svg xmlns="http://www.w3.org/2000/svg" height="20" width="20"><path d="M7.708 18.208Q7.167 18.208 6.656 18Q6.146 17.792 5.771 17.417L2.604 14.25Q2.229 13.875 2.01 13.365Q1.792 12.854 1.792 12.312V7.688Q1.792 7.146 2.01 6.646Q2.229 6.146 2.583 5.792L2.771 5.583L0.854 3.688Q0.542 3.375 0.552 2.969Q0.562 2.562 0.875 2.25Q1.188 1.938 1.594 1.938Q2 1.938 2.333 2.25L17.75 17.688Q18.062 18 18.052 18.417Q18.042 18.833 17.75 19.125Q17.417 19.458 17.021 19.458Q16.625 19.458 16.312 19.125L14.396 17.229L14.208 17.417Q13.833 17.792 13.333 18Q12.833 18.208 12.292 18.208ZM9.5 12.375Q9.5 12.375 9.521 12.375Q9.542 12.375 9.583 12.375Q9.25 12.5 9.031 12.812Q8.812 13.125 8.812 13.479Q8.812 13.958 9.167 14.312Q9.521 14.667 10 14.667Q10.354 14.667 10.667 14.448Q10.979 14.229 11.104 13.896Q11.104 13.938 11.104 13.938Q11.104 13.938 11.104 13.938ZM17.292 14.333 17.375 14.25Q17.75 13.875 17.979 13.365Q18.208 12.854 18.208 12.292V7.708Q18.208 7.167 17.99 6.656Q17.771 6.146 17.396 5.771L14.229 2.604Q13.854 2.229 13.344 2.01Q12.833 1.792 12.292 1.792H7.708Q7.167 1.792 6.656 2.01Q6.146 2.229 5.771 2.604L5.667 2.708L9.021 6.021V6.167Q9.146 5.812 9.427 5.646Q9.708 5.479 10 5.479Q10.417 5.479 10.729 5.781Q11.042 6.083 11.042 6.5V8.042Z"/></svg>
